X: 1
T: Crossroads Fling, The
M: 12/8
L: 1/8
R: slide
K: Dmaj
|: A B2 c | d2 e f2 d e2 d BAB | def a2 f g3 f2 e | 
d2 e f2 d e2 d BAB | a2 g f2 e d2- :|
|: d d2 e | fgf fef gag gfe | fef a2 f e3 ede | 
fgf fef gag gfg | a2 g f2 e d2- :|
